app/icons/svg/ic_map_regions.svg

<svg xmlns="http://www.w3.org/2000/svg" viewBox="0 0 24 24"><g fill="none" fill-rule="evenodd"><path d="M0 0h24v24H0z"/><path fill="#454545" d="M11 13v9H2v-9h9zm11 0v9h-9v-9h9zM9 15H4v5h5v-5zm11 0h-5v5h5v-5zm2-13v9h-9V2h9zM11 2v9H2V2h9zm9 2h-5v5h5V4z"/></g></svg>

<?xml version="1.0" encoding="UTF-8"?>
<svg width="24px" height="24px" viewBox="0 0 24 24" version="1.1" xmlns="http://www.w3.org/2000/svg" xmlns:xlink="http://www.w3.org/1999/xlink">
    <title>Icons/IXT/24dp/ic_map_regions</title>
    <g id="Icons/IXT/24dp/ic_map_regions" stroke="none" stroke-width="1" fill="none" fill-rule="evenodd">
        <g id="ic_map_regions">
            <rect id="Container" x="0" y="0" width="24" height="24"></rect>
            <path d="M11,13 L11,22 L2,22 L2,13 L11,13 Z M22,13 L22,22 L13,22 L13,13 L22,13 Z M9,15 L4,15 L4,20 L9,20 L9,15 Z M20,15 L15,15 L15,20 L20,20 L20,15 Z M22,2 L22,11 L13,11 L13,2 L22,2 Z M11,2 L11,11 L2,11 L2,2 L11,2 Z M20,4 L15,4 L15,9 L20,9 L20,4 Z" id="Combined-Shape" fill="#454545"></path>
        </g>
    </g>
</svg>
